actions/22x22-dark/selection-move-to-layer-below.svg

<svg viewBox="0 0 22 22" xmlns="http://www.w3.org/2000/svg"><path d="m7 3-2.6666667 2.6666667-1.3333333 1.3333333h5.3333333 3.9999997v-1.3333333h-3.9999997-2.1119792l1.3307292-1.3333334h6.1145837 2.111978l-1.330728 1.3333334h1.885416l1.333334-1.3333334 1.333333-1.3333333h-5.333333zm0 12-4 4h12l4-4z" fill="#f2f2f2"/><path d="m15 7v5.375l-1.791667-1.916667-.875.916667 3.083334 3.333333.25.291667.25-.291667 3.083333-3.333333-.875-.916667-1.791667 1.916667v-5.375z" fill="#3daee9"/></svg>

<svg xmlns="http://www.w3.org/2000/svg" viewBox="0 0 22 22">
  <defs id="defs3051">
    <style type="text/css" id="current-color-scheme">
      .ColorScheme-Text {
        color:#f2f2f2;
      }
      .ColorScheme-Highlight {
        color:#3daee9;
      }
      </style>
  </defs>
 <path 
     style="fill:currentColor;fill-opacity:1;stroke:none" 
     d="M 7,3 4.3333333,5.6666667 3,7 l 5.3333333,0 3.9999997,0 0,-1.3333333 -3.9999997,0 -2.1119792,0 1.3307292,-1.3333334 6.1145837,0 2.111978,0 -1.330728,1.3333334 1.885416,0 L 17.666667,4.3333333 19,3 13.666667,3 7,3 Z m 0,12 -4,4 12,0 4,-4 -12,0 z"
     class="ColorScheme-Text"
     />
 <path 
     style="fill:currentColor;fill-opacity:1;stroke:none" 
     class="ColorScheme-Highlight"
     d="m 15,7 0,5.375 -1.791667,-1.916667 -0.875,0.916667 3.083334,3.333333 0.25,0.291667 0.25,-0.291667 L 19,11.375 18.125,10.458333 16.333333,12.375 16.333333,7 15,7 Z"
     />
</svg>
